X:387
T:Halling efter Anton Andersson
T:(SvL Bohuslän nr. 1)
R:Halling
Z:Jonas Brunskog, 21/8 2008
O:Blåskog, Skee, Bohuslän
S:efter Anton Andersson
B:Svenska Låtar Bohuslän nr 1
M:2/4
L:1/16
K:D
|:a2b(g a)(ba)f|abag efdf|a(ba)g efg(g|f)dec [AD]4:|
|:cee2 d(fa2)|g(eg2) f(de2)|c(de2) d(fa2)|geg2 fde2|ece2 d4|
cee2 d(fa2)|g(eg2) f(de2)|c(de2) d(fa2)|geg2 fde2|cece d4:|
(:musicend:)

(:music:)
